assets/images/projects/open-software.svg

<svg height="235pt" viewBox="0 0 235 235" width="235pt" xmlns="http://www.w3.org/2000/svg"><path d="m0 0h235v235h-235z" fill="#fff"/><path d="m105.28 13.26c26.17-2.68 53.57 3.68 74.69 19.7 21.72 15.76 37.1 40.2 41.1 66.81 3.56 22.2.66 45.62-9.48 65.81-17.93 35.28-57 58.42-96.56 57.38-32.09-.55-63.06-17.2-82-42.97-14.12-18.44-21.24-41.89-20.62-65.01.68-24.53 10.3-48.68 26.7-66.94 16.56-19.49 40.75-32.1 66.17-34.78z"/><path d="m112.38 31.51c20.24-1.25 40.98 4.64 57.09 17.07 17.78 13.16 30.16 33.44 33.3 55.37 3.19 20.76-.63 42.92-12.26 60.6-12.49 18.85-32.49 32.54-54.56 37.43-17.78 3.9-36.8 2.01-53.38-5.54-20.66-9.44-37.43-27.11-45.7-48.27-6.71-16.95-7.57-36.1-2.48-53.6 6.3-22.02 21.57-41.3 41.44-52.64 11.16-6.25 23.78-9.77 36.55-10.42z" fill="#fff"/><path d="m157.75 75.75h12.5v12.5c-4.17 0-8.33 0-12.5 0 0-4.17 0-8.33 0-12.5z"/><path d="m64.28 98.27c11.58-5.68 27.47-4.3 36.11 5.98-2.81 2.9-5.87 5.53-8.71 8.4-2.74-5.39-9.01-8.05-14.86-7.31-2.91.31-6.78 1.28-7.18 4.76.3 2.84 3.44 3.61 5.73 4.25 7.72 1.92 16.65 1.64 22.87 7.32 3.78 3.25 3.68 8.71 2.93 13.22-1.63 6.99-8.32 11.53-15.09 12.72-11.06 1.98-23.91.05-31.77-8.65 3.05-2.46 6.2-4.79 9.28-7.21 3.24 3.99 8.21 6.17 13.31 6.26 3.96.36 8.63-.83 10.68-4.53 1.07-1.66-.23-3.49-1.79-4.18-7.87-3.37-17.38-2.22-24.41-7.65-7.77-5.76-5.5-19.28 2.9-23.38z"/><path d="m117.85 97.62c8.01-3.57 18.03-3.79 25.58 1.03 4.05 2.53 6.52 6.81 8.46 11.05-3.65 1.65-7.28 3.33-10.93 4.99-1.13-2.54-2.54-5.11-5.04-6.53-5.45-3.59-13.33-1.12-16.4 4.46-3.37 6.09-3.06 14.22 1 19.92 3.88 5.33 12.56 5.76 17.08 1.04 1.99-1.76 3.07-4.24 4.16-6.6 3.57 1.88 7.15 3.72 10.66 5.69-2.93 6.98-8.61 13.17-16.21 14.91-7.39 1.58-15.73.82-21.95-3.82-7.13-5.1-10.38-14.24-10.04-22.79-.12-9.44 4.76-19.35 13.63-23.35z"/><path d="m157.75 96.25c4.17-.01 8.33 0 12.5 0v50.75c-4.17 0-8.33 0-12.5 0 0-16.92 0-33.83 0-50.75z"/></svg>

<?xml version="1.0" encoding="UTF-8" ?>
<!DOCTYPE svg PUBLIC "-//W3C//DTD SVG 1.1//EN" "http://www.w3.org/Graphics/SVG/1.1/DTD/svg11.dtd">
<svg width="235pt" height="235pt" viewBox="0 0 235 235" version="1.1" xmlns="http://www.w3.org/2000/svg">
<path fill="#ffffff" d=" M 0.00 0.00 L 235.00 0.00 L 235.00 235.00 L 0.00 235.00 L 0.00 0.00 Z" />
<path fill="#000000" d=" M 105.28 13.26 C 131.45 10.58 158.85 16.94 179.97 32.96 C 201.69 48.72 217.07 73.16 221.07 99.77 C 224.63 121.97 221.73 145.39 211.59 165.58 C 193.66 200.86 154.59 224.00 115.03 222.96 C 82.94 222.41 51.97 205.76 33.03 179.99 C 18.91 161.55 11.79 138.10 12.41 114.98 C 13.09 90.45 22.71 66.30 39.11 48.04 C 55.67 28.55 79.86 15.94 105.28 13.26 Z" />
<path fill="#ffffff" d=" M 112.38 31.51 C 132.62 30.26 153.36 36.15 169.47 48.58 C 187.25 61.74 199.63 82.02 202.77 103.95 C 205.96 124.71 202.14 146.87 190.51 164.55 C 178.02 183.40 158.02 197.09 135.95 201.98 C 118.17 205.88 99.15 203.99 82.57 196.44 C 61.91 187.00 45.14 169.33 36.87 148.17 C 30.16 131.22 29.30 112.07 34.39 94.57 C 40.69 72.55 55.96 53.27 75.83 41.93 C 86.99 35.68 99.61 32.16 112.38 31.51 Z" />
<path fill="#000000" d=" M 157.75 75.75 C 161.92 75.75 166.08 75.75 170.25 75.75 C 170.25 79.92 170.25 84.08 170.25 88.25 C 166.08 88.25 161.92 88.25 157.75 88.25 C 157.75 84.08 157.75 79.92 157.75 75.75 Z" />
<path fill="#000000" d=" M 64.28 98.27 C 75.86 92.59 91.75 93.97 100.39 104.25 C 97.58 107.15 94.52 109.78 91.68 112.65 C 88.94 107.26 82.67 104.60 76.82 105.34 C 73.91 105.65 70.04 106.62 69.64 110.10 C 69.94 112.94 73.08 113.71 75.37 114.35 C 83.09 116.27 92.02 115.99 98.24 121.67 C 102.02 124.92 101.92 130.38 101.17 134.89 C 99.54 141.88 92.85 146.42 86.08 147.61 C 75.02 149.59 62.17 147.66 54.31 138.96 C 57.36 136.50 60.51 134.17 63.59 131.75 C 66.83 135.74 71.80 137.92 76.90 138.01 C 80.86 138.37 85.53 137.18 87.58 133.48 C 88.65 131.82 87.35 129.99 85.79 129.30 C 77.92 125.93 68.41 127.08 61.38 121.65 C 53.61 115.89 55.88 102.37 64.28 98.27 Z" />
<path fill="#000000" d=" M 117.85 97.62 C 125.86 94.05 135.88 93.83 143.43 98.65 C 147.48 101.18 149.95 105.46 151.89 109.70 C 148.24 111.35 144.61 113.03 140.96 114.69 C 139.83 112.15 138.42 109.58 135.92 108.16 C 130.47 104.57 122.59 107.04 119.52 112.62 C 116.15 118.71 116.46 126.84 120.52 132.54 C 124.40 137.87 133.08 138.30 137.60 133.58 C 139.59 131.82 140.67 129.34 141.76 126.98 C 145.33 128.86 148.91 130.70 152.42 132.67 C 149.49 139.65 143.81 145.84 136.21 147.58 C 128.82 149.16 120.48 148.40 114.26 143.76 C 107.13 138.66 103.88 129.52 104.22 120.97 C 104.10 111.53 108.98 101.62 117.85 97.62 Z" />
<path fill="#000000" d=" M 157.75 96.25 C 161.92 96.24 166.08 96.25 170.25 96.25 C 170.25 113.16 170.25 130.08 170.25 147.00 C 166.08 147.00 161.92 147.00 157.75 147.00 C 157.75 130.08 157.75 113.17 157.75 96.25 Z" />
</svg>
